icon_installer/data/icons/scalable/actions/show-tab-new-symbolic.svg

<?xml version="1.0" encoding="UTF-8"?>
<svg height="16px" viewBox="0 0 16 16" width="16px" xmlns="http://www.w3.org/2000/svg">
    <g fill="#222222">
        <path d="m 4 1 s -0.707031 -0.015625 -1.445312 0.355469 c -0.742188 0.371093 -1.554688 1.3125 -1.554688 2.644531 v 9 h -1 l -0.00390625 2 h 0.00390625 l 3 0.011719 v -0.011719 h 13 v -2 h -1 v -9 s 0.015625 -0.707031 -0.355469 -1.445312 c -0.371093 -0.742188 -1.3125 -1.554688 -2.644531 -1.554688 z m 0 2 h 8 c 0.667969 0 0.726562 0.1875 0.855469 0.445312 c 0.128906 0.261719 0.144531 0.554688 0.144531 0.554688 v 9 h -10 v -9 c 0 -0.667969 0.1875 -0.726562 0.449219 -0.855469 c 0.257812 -0.128906 0.550781 -0.144531 0.550781 -0.144531 z m 0 0"/>
        <path d="m 7.003906 5 v 2 h -2 v 2 h 2 v 2 h 2 v -2 h 2 v -2 h -2 v -2 z m 0 0"/>
    </g>
</svg>

<svg xmlns="http://www.w3.org/2000/svg" width="16" height="16"><g fill="#222"><path d="M4 1s-.707-.016-1.445.355C1.812 1.727 1 2.668 1 4v9H0l-.004 2H0l3 .012V15h13v-2h-1V4s.016-.707-.355-1.445C14.273 1.812 13.332 1 12 1zm0 2h8c.668 0 .727.188.855.445.13.262.145.555.145.555v9H3V4c0-.668.188-.727.45-.855C3.706 3.015 4 3 4 3zm0 0"/><path d="M7.004 5v2h-2v2h2v2h2V9h2V7h-2V5zm0 0"/></g></svg>
